X: 9
T:Green Grow The Rushes. WCa.09
M:C|
Q:200
S:Wm. Calvert MS, 1812, Leyburn, Yorks.
R:Reel
O:England
A:North Yorkshire
Z:vmp.Chris Partington, May 2003
K:G
A|G2GA BGGB|A2cd eAAB|cdec BcdB|AcBA GE E::!
d|gfge dBAG|gfga beef|gfge dBAG|(A/B/c) BA GE E:||
